X: 21291
M: 6/8
L: 1/8
K: G
V: 1 staves=2
z2z z2D |\
z6 | z6 | z6 | z2z z2d |\
e2e (e>d)^c | d2d (d>c)B | c2c (c>B)A | B2z z2z |
z6 | z6 | z6 | z6 |\
z6 | z2z z2d | d2z B2e | cAz z2z |\
a6 | zAB czz | z2d ge^c | d2z z2z |
z2f ge^c | dAf ge^c | Hd2z "ad lib."z2d | cz c Bz B |\
d2d (d/c/B/c/) (d/g/) |\
(g/f/a/g/f/e/ d/e/d/e/)(d/c/) | B2B (B>A)B | c2A F2D | G2z z2d |\
(efg {a}gf).e | (dcB Bc).d | {ef}g2c B>cA | HG2 |]
d2z z2z | z2d ^ccz | z6 | z2z z2z/c/ |\
z2f ge^c |
dAf ge^c | Hd2z z2d | (ce)c (Bd)B |\
d2d (d/c/B/c/) (d/g/) |\
(g/f/a/g/f/e/ d/e/d/e/)(d/c/) | B2B (B>A)B | c2A F2D | G2z z2G |\
e2e e>d^c | d2d d>cB | c2c (c>B)A | B2z z2G |
c2c (c>B)^A |\
{a}g/f/g/a/g z{g}f/e/f/d/ | {a}g/f/g/a/g {ef}g>fe |\
(dg)c (B>c)A | g2d {ef}g>fe |\
(dg)c B>cA | G2 |]
V: 2
z6 | z6 | z6 | z6 |\
z2z z2d | e2e e>dc | d2d d>cB | c2c c>BA |
z2z z2A | (B=fe) (dc)B | Azz zAd | BGz z2z |
z2f ge^c | dAd ^ceg | f2d ^ceg | Hf2z z2z | z6 | z6 | z6 |
z6 | z6 | z2z z2D | G2G {A}G>FG | A2F D2D | B2B (B>A)B |
c2A F2D | d2d (d/c/B/c/) (d/g/) |\
(g/f/a/g/f/e/ d/e/d/e/)(d/c/) | B2z z2B | (cde {f}ed).c |
(BAG GA).B | {cd}e2A G>AF | HG2 |]\
z z2z | z2d/^c/ BAA | (AF)z z2c | d2d/>^c/ BAA |
f2d ^ceg | Hf2z z2z | z6 | z6 | z6 | z6 |
z6 | z2z z2D | G2G ({A}G>FG) | A2F D2D | B2B (B>A)B | c2A F2D |
d2d (d/c/B/c/) (d/g/) | g/f/a/g/f/e/ d/e/d/e/d/c/ |\
{c}B/A/B/c/B {cd}e>dc | B2A G>AF |\




